material/.icons/material/hexadecimal.svg

<svg xmlns="http://www.w3.org/2000/svg" viewBox="0 0 24 24"><path d="M7 7c-1.1 0-2 .9-2 2v6a2 2 0 002 2h2c1.11 0 2-.89 2-2V9a2 2 0 00-2-2H7m0 2h2v6H7V9m10.6 8l-2.1-2.1-2.1 2.1-1.4-1.4 2.1-2.1-2.1-2.1 1.4-1.4 2.1 2.1 2.1-2.1 1.4 1.4-2.1 2.1 2.1 2.1-1.4 1.4z"/></svg>

<?xml version="1.0" encoding="UTF-8"?><!DOCTYPE svg PUBLIC "-//W3C//DTD SVG 1.1//EN" "http://www.w3.org/Graphics/SVG/1.1/DTD/svg11.dtd"><svg xmlns="http://www.w3.org/2000/svg" xmlns:xlink="http://www.w3.org/1999/xlink" version="1.1" id="mdi-hexadecimal" width="24" height="24" viewBox="0 0 24 24"><path d="M7 7C5.9 7 5 7.9 5 9V15C5 16.11 5.9 17 7 17H9C10.11 17 11 16.11 11 15V9C11 7.9 10.11 7 9 7H7M7 9H9V15H7V9M17.6 17L15.5 14.9L13.4 17L12 15.6L14.1 13.5L12 11.4L13.4 10L15.5 12.1L17.6 10L19 11.4L16.9 13.5L19 15.6L17.6 17Z" /></svg>
